Papirus/64x64/apps/ring.svg

<?xml version="1.0" encoding="UTF-8" standalone="no"?>
<svg xmlns="http://www.w3.org/2000/svg" height="64" viewBox="0 0 64 64" width="64" version="1.1">
 <rect transform="matrix(0.8660254,-0.5,0.5,0.8660254,0,0)" style="opacity:0.2;fill:#000000;fill-opacity:1" width="16" height="60" x="3.22" y="14.58" rx="5.334" ry="6"/>
 <rect ry="6" rx="5.334" y="13.71" x="3.72" height="60" width="16" style="opacity:1;fill:#31a3b3;fill-opacity:1" transform="matrix(0.8660254,-0.5,0.5,0.8660254,0,0)"/>
 <path style="opacity:0.1;fill:#ffffff;fill-opacity:1" d="M 21.884766 4.0351562 C 20.999741 4.0140781 20.118089 4.2218694 19.318359 4.6835938 L 14.701172 7.3496094 C 12.925195 8.3749703 12.036631 10.376889 12.212891 12.46875 C 12.349819 10.757643 13.211545 9.209646 14.701172 8.3496094 L 19.318359 5.6835938 C 21.877496 4.2060757 25.2755 5.3342222 26.9375 8.2128906 L 50.9375 49.78125 C 51.446113 50.662194 51.728915 51.600982 51.806641 52.523438 C 51.904811 51.295087 51.631965 49.984099 50.9375 48.78125 L 26.9375 7.2109375 C 25.794875 5.231853 23.83182 4.0815282 21.884766 4.0351562 z"/>
 <rect ry="6" rx="5.334" y="-17.42" x="-52.22" height="60" width="16" style="opacity:0.2;fill:#000000;fill-opacity:1" transform="matrix(-0.8660254,-0.5,-0.5,0.8660254,0,0)"/>
 <rect transform="matrix(-0.8660254,-0.5,-0.5,0.8660254,0,0)" style="opacity:1;fill:#67bcc8;fill-opacity:1" width="16" height="60" x="-51.72" y="-18.29" rx="5.334" ry="6"/>
 <path style="opacity:0.1;fill:#ffffff;fill-opacity:1" d="M 42.126953 4.0410156 C 40.179899 4.0873876 38.216844 5.2396655 37.074219 7.21875 L 13.074219 48.789062 C 12.381231 49.989352 12.108715 51.297344 12.205078 52.523438 C 12.283738 51.603448 12.567018 50.66756 13.074219 49.789062 L 37.074219 8.21875 C 38.736219 5.3400816 42.134223 4.2119351 44.693359 5.6894531 L 49.310547 8.3554688 C 50.799248 9.214971 51.663031 10.762816 51.800781 12.472656 C 51.975541 10.382269 51.085371 8.3801641 49.310547 7.3554688 L 44.693359 4.6894531 C 43.893629 4.2277287 43.011978 4.0199374 42.126953 4.0410156 z"/>
 <rect transform="matrix(0,-1,-1,0,0,0)" style="opacity:0.2;fill:#000000;fill-opacity:1" width="16" height="60" x="-40.99" y="-62" rx="5.334" ry="6"/>
 <rect ry="6" rx="5.334" y="-62" x="-39.99" height="60" width="16" style="opacity:1;fill:#94d4de;fill-opacity:1" transform="matrix(0,-1,-1,0,0,0)"/>
 <path style="opacity:0.1;fill:#ffffff;fill-opacity:1" d="M 8 23.994141 C 4.676 23.994141 2 26.373089 2 29.328125 L 2 30.328125 C 2 27.373089 4.676 24.994141 8 24.994141 L 56 24.994141 C 59.324 24.994141 62 27.373089 62 30.328125 L 62 29.328125 C 62 26.373089 59.324 23.994141 56 23.994141 L 8 23.994141 z"/>
</svg>

<?xml version="1.0" encoding="UTF-8" standalone="no"?>
<svg xmlns="http://www.w3.org/2000/svg" height="64" width="64" version="1.1" viewBox="0 0 64 64">
 <rect ry="6" style="opacity:.2" rx="5.334" transform="rotate(-30)" height="60" width="16" y="14.58" x="3.22"/>
 <rect style="fill:#31a3b3" transform="rotate(-30)" rx="5.334" ry="6" height="60" width="16" y="13.71" x="3.72"/>
 <path style="opacity:.1;fill:#ffffff" d="m21.885 4.0352c-.885-.0211-1.767.1867-2.567.6484l-4.617 2.666c-1.776 1.0254-2.664 3.0274-2.488 5.1194.137-1.711.999-3.2594 2.488-4.1194l4.617-2.666c2.559-1.4775 5.958-.3494 7.62 2.5293l24 41.568c.508.881.791 1.82.869 2.742.098-1.228-.175-2.539-.869-3.742l-24-41.57c-1.143-1.9791-3.106-3.1295-5.053-3.1758z"/>
 <rect style="opacity:.2" transform="matrix(-.86603 -.5 -.5 .86603 0 0)" rx="5.334" ry="6" height="60" width="16" y="-17.42" x="-52.22"/>
 <rect ry="6" style="fill:#67bcc8" rx="5.334" transform="matrix(-.86603 -.5 -.5 .86603 0 0)" height="60" width="16" y="-18.29" x="-51.72"/>
 <path style="opacity:.1;fill:#ffffff" d="m42.127 4.041c-1.947.0464-3.91 1.1987-5.053 3.1778l-24 41.57c-.693 1.2-.965 2.508-.869 3.734.079-.920.362-1.855.869-2.734l24-41.57c1.662-2.8789 5.06-4.0071 7.619-2.5295l4.618 2.666c1.488.8595 2.352 2.4075 2.49 4.1175.175-2.091-.716-4.0928-2.49-5.1175l-4.618-2.666c-.799-.4618-1.681-.6696-2.566-.6485z"/>
 <rect ry="6" style="opacity:.2" rx="5.334" transform="matrix(0,-1,-1,0,0,0)" height="60" width="16" y="-62" x="-40.99"/>
 <rect style="fill:#94d4de" transform="matrix(0,-1,-1,0,0,0)" rx="5.334" ry="6" height="60" width="16" y="-62" x="-39.99"/>
 <path style="opacity:.1;fill:#ffffff" d="m8 23.994c-3.324 0-6 2.379-6 5.334v1c0-2.955 2.676-5.334 6-5.334h48c3.324 0 6 2.379 6 5.334v-1c0-2.955-2.676-5.334-6-5.334h-48z"/>
</svg>
